X:1
T:Altri le vie
T:Gio. Felice Sances
T:Source : Cantade---Libro II prima parte---B.Magni---1633. Editor : André Vierendeels (28/08/18) Notes : Original clefs : C1, F4 Cantata a voce sola Passegiata
T:Prima stanza
T:Altri le vie
T:©
T:©
T:©
T:©
T:©
T:©
T:©
T:©
C:Gio. Felice Sances
Z:©
%%score 1 { 2 | 3 }
L:1/8
Q:1/4=120
M:4/4
K:C
V:1 treble nm="Soprano" snm="S"
V:2 treble nm="MusicXML Part"
V:3 bass 
V:1
 G4 G3 G | G4 z AAA | B>c B>c d2 A2 | A3 G- AA G/F/G/A/ | D2 D2 z d c>B | B4 B>B c/B/c/d/ | %6
w: Al- tri le|vie de gl'im- mort-|tal _ _ _ _ Zaf-|fri _ _ cal- * * * *|* chi le sfe- re|mo- va e- i _ _ _|
 e2 E/F/E/F/4G/4 A3 B | B4 A4 | z4 z2 z A | B2 c2 d2 d2 | z2 ef g3 d | d4 c4 | z4 z2 B2 | %13
w: _ car- * * * * * ri|d'o- ro,|io|cal- co l'or- me,|di dol- ci ch'a|do- ro|e|
 BBcc d4- | d2 c2 B3 c/d/ | G2 A2 A4 | G4 z4 | z4 z2 A2 | ^F/E/F/G/ A/G/A/B/ c/B/A/G/ A/F/G/A/ | %19
w: de be- gl'oc chi suoi|_ mi muo- * *|* vo'ai gi-|ri,|e|de _ _ _ begl'- * * * oc- * * * chi _ _ _|
"^-natural" B/D/E/F/ G/A/B/c/ d/G/A/B/ c/d/e/f/ | g2 AA A4 | !fermata!G8 || %22
w: suoi _ _ _ _ _ _ _ mi _ _ _ _ _ _ _|_ muo- vo'ai gi-|ri.|
"^Seconda stanza" B4 B3 B | c2 d2 e/d/c/B/ A/^F/G/A/ |"^#" B/D/E/F/ G/A/B/c/ dAAB | G3 A/G/ ^F4 | %26
w: Veg- go nel|suo sem- bian- * * * * * * *|* * * * * * * * * te ne suoi|lu- * * mi,|
 z4 z2 ^F2 | GGGA B2 cd | ef/e/ d/c/B/c/ Af/e/ d/c/B/c/ | ^GA A>G A4 | z4 z2 ^FF | G2 AA B2 c2- | %32
w: cio|che trà le sue ro- be il|Ciel _ _ _ _ _ _ _ _ _ _ _ _ _|_ con- ti- * ne,|e nel|tro- no di due lu-|
 c2 c4 c2 | c3 B- cc B>A | G>A G>A B2 BB | ^c2 cc d4 | z DEF GABc | dc/d/ eA A4 | G4 z4 | %39
w: * ci se-|re- ne _ _ _ _|_ _ _ _ _ del col-|leg- gio di- vin|di- * * scer- * * *|* * * * no nu-|mi,|
 z4 dc/B/ A/G/F/E/ | D/E/F/G/ A/B/c/d/ ed dc/d/ | Bc d/c/B/A/ d/c/B/A/ d/c/B/A/ | G3 A A4 | %43
w: del _ _ _ _ _ _|_ _ _ _ _ _ _ _ _ col- leg- gio di-|vin di- scer- * * * * * * * * * * *|* noi nu-|
 !fermata!G8 ||"^Terza et ultima stanza" d3 c/d/ e4- | e2 AB cB B/B/B/A/ | Bd/c/ Bc/d/ G4 | %47
w: mi;|Cio _ _ _|_ _ ch'hà di bel _ _ _ lo'a-|mor _ _ _ _ _ _|
 z BAG A3 G/A/ | ^F4 z dcd | BBAB G4 | z EFG A2 f/e/d/c/ | B4 A4 | A2 Bc d2 d2- | %53
w: di ric- co'il mon- * *|do, all' a- pa-|rir, all' a- pa- rir|de la mia di- va'ap- * * *|pa- re|e di- tal pro- le|
 ddcc B/G/A/B/ c/G/A/B/ | c/G/A/B/ c/d/e/f/ g3 d | d4 c4 | z4 B2 AA | B2 ^c/A/B/c/ dDEF | %58
w: _ le'am- bi- ti- o- * * * * * * *|* * * * * * * * * so'il|ma- re,|sde- gna d'ogn'|al- tro _ _ _ ciel _ _ _|
 GABc d2 c/B/c/d/ | B/ d/c/d/ B/c/A/B/4A/4 A4 | G4 z4 | z4 z2 A/^F/G/A/ | %62
w: _ _ _ _ _ es- * * *|ser se- * * * * * * * con-|do,|sde- * * *|
"^#" D/E/F/G/ AB c/B/B/B/ B/B/B/A/ | d/c/B/A/ G/F/E/D/ G2 A2- | A2 AA A4 | !fermata!G8 |] %66
w: gna _ _ _ _ d'ogn- al- * * * * * * tro|ciel _ _ _ _ _ _ _ _ es-|* ser se- con-|do.|
V:2
 z8 | z8 | z8 | z8 |"^BC" z8 | z8 | z8 | z8 | z8 | z8 | z8 | z8 | z8 | z8 | z8 | z8 | z8 | z8 | %18
 z8 | z8 | z8 | z8 || z8 | z8 | z8 | z8 | z8 | z8 | z8 | z8 | z8 | z8 | z8 | z8 | z8 | z8 | z8 | %37
 z8 | z8 | z8 | z8 | z8 | z8 | z8 || z8 | z8 | z8 | z8 | z8 | z8 | z8 | z8 | z8 | z8 | z8 | z8 | %56
 z8 | z8 | z8 | z8 | z8 | z8 | z8 | z8 | z8 | z8 |] %66
V:3
 G,2 F,2 E,2 D,2 | C,2 B,,2 A,,2 D,2 | G,,4 G,2 F,2 | E,4 D,4 | D,2 C,2 B,,2 A,,2 | %5
 G,2 F,2 E,2 D,2 | C,2 D,E, F,2 D,2 | E,4 A,2 G,2 | ^F,2 E,2 D,2 C,2 | B,,2 A,,2 G,,2 F,,2 | %10
 E,,2 D,,2 C,,2 E,,2 | F,,2 G,,2 C,2 D,2 | E,2 ^F,2 G,2 F,2 | E,4 D,2 C,2 | %14
"^#" B,,2 A,,2 G,,2 A,,2 | B,,2 C,2 D,4 | G,,4 G,2 ^F,2 | E,2 A,A,, D,4- | D,2 C,B,, A,,2 E,2 | %19
 G,,2 A,,2 B,,2 C,D, | E,2 C,2 D,4 | !fermata!G,,8 || G,2 F,2 E,2 D,2 | C,2 B,,2 A,,2 D,2 | %24
 G,,4 G,2 ^F,2 | E,4 D,4 | D,2 C,2 B,,2 A,,2 | G,2 F,2 E,2 D,2 | C,2 D,E, F,2 D,2 | E,4 A,2 G,2 | %30
 ^F,2 E,2 D,2 C,2 | B,,2 A,,2 G,,2 F,,2 | E,,2 D,,2 C,,2 E,,2 | F,,2 G,,2 C,2 D,2 | %34
 E,2 ^F,2 G,2 F,2 | E,4 D,2 C,2 | B,,2 A,,2 G,,2 A,,2 | B,,2 C,2 D,4 | G,,4 G,2 ^F,2 | %39
 E,2 A,A,, D,4 | D,2 C,B,, A,,2 D,2 | G,,2 A,,2 B,,2 C,D, | E,2 C,2 D,4 | !fermata!G,,8 || %44
 G,2 F,2 E,2 D,2 | C,2 B,,2 A,,2 D,2 | G,,4 G,2 ^F,2 | E,4 D,4 | D,2 C,2 B,,2 A,,2 | %49
 G,2 F,2 E,2 D,2 | C,2 D,E, F,2 D,2 | E,4 A,2 G,2 | ^F,2 E,2 D,2 C,2 | B,,2 A,,2 G,,2 F,,2 | %54
 E,,2 D,,2 C,,2 E,,2 | F,,2 G,,2 C,2 D,2 | E,2 ^F,2 G,2 F,2 | E,4 D,2 C,2 | B,,2 A,,2 G,,2 A,,2 | %59
 B,,2 C,2 D,4 | G,,4 G,2 ^F,2 | E,2 A,A,, D,4 | D,2 C,B,, A,,2 D,2 | G,,2 A,,2 B,,2 C,D, | %64
 E,2 C,2 D,4 | !fermata!G,,8 |] %66

